static/img/kroki/980019ecfd6b55dc42094501a61872b3.svg

<?xml version="1.0" encoding="us-ascii" standalone="no"?><svg xmlns="http://www.w3.org/2000/svg" xmlns:xlink="http://www.w3.org/1999/xlink" contentStyleType="text/css" height="573px" preserveAspectRatio="none" style="width:340px;height:573px;" version="1.1" viewBox="0 0 340 573" width="340px" zoomAndPan="magnify"><defs/><g><!--class microsoft_graph_entity--><g id="elem_microsoft_graph_entity"><rect codeLine="23" fill="#3D176E" height="39.7891" id="microsoft_graph_entity" rx="2.5" ry="2.5" style="stroke:#000D19;stroke-width:0.5;" width="236" x="7" y="367.37"/><ellipse cx="22" cy="387.2645" fill="#ADD1B2" rx="11" ry="11" style="stroke:#181818;stroke-width:1.0;"/><path d="M24.9688,392.9052 Q24.3906,393.202 23.75,393.3427 Q23.1094,393.4989 22.4063,393.4989 Q19.9063,393.4989 18.5781,391.8583 Q17.2656,390.202 17.2656,387.077 Q17.2656,383.952 18.5781,382.2958 Q19.9063,380.6395 22.4063,380.6395 Q23.1094,380.6395 23.75,380.7958 Q24.4063,380.952 24.9688,381.2489 L24.9688,383.9677 Q24.3438,383.3895 23.75,383.1239 Q23.1563,382.8427 22.5313,382.8427 Q21.1875,382.8427 20.5,383.9208 Q19.8125,384.9833 19.8125,387.077 Q19.8125,389.1708 20.5,390.2489 Q21.1875,391.3114 22.5313,391.3114 Q23.1563,391.3114 23.75,391.0458 Q24.3438,390.7645 24.9688,390.1864 L24.9688,392.9052 Z " fill="#000000"/><text fill="#D9B8FF" font-family="Helvetica" font-size="17" lengthAdjust="spacing" textLength="194" x="41" y="393.1498">microsoft_graph_entity</text></g><!--class microsoft_graph_user--><g id="elem_microsoft_graph_user"><rect codeLine="26" fill="#3D176E" height="39.7891" id="microsoft_graph_user" rx="2.5" ry="2.5" style="stroke:#000D19;stroke-width:0.5;" width="222" x="99" y="528.16"/><ellipse cx="114" cy="548.0545" fill="#ADD1B2" rx="11" ry="11" style="stroke:#181818;stroke-width:1.0;"/><path d="M116.9688,553.6952 Q116.3906,553.992 115.75,554.1327 Q115.1094,554.2889 114.4063,554.2889 Q111.9063,554.2889 110.5781,552.6483 Q109.2656,550.992 109.2656,547.867 Q109.2656,544.742 110.5781,543.0858 Q111.9063,541.4295 114.4063,541.4295 Q115.1094,541.4295 115.75,541.5858 Q116.4063,541.742 116.9688,542.0389 L116.9688,544.7577 Q116.3438,544.1795 115.75,543.9139 Q115.1563,543.6327 114.5313,543.6327 Q113.1875,543.6327 112.5,544.7108 Q111.8125,545.7733 111.8125,547.867 Q111.8125,549.9608 112.5,551.0389 Q113.1875,552.1014 114.5313,552.1014 Q115.1563,552.1014 115.75,551.8358 Q116.3438,551.5545 116.9688,550.9764 L116.9688,553.6952 Z " fill="#000000"/><text fill="#D9B8FF" font-family="Helvetica" font-size="17" lengthAdjust="spacing" textLength="180" x="133" y="553.9398">microsoft_graph_user</text></g><!--class microsoft_resource--><g id="elem_microsoft_resource"><rect codeLine="29" fill="#3D176E" height="39.7891" id="microsoft_resource" rx="2.5" ry="2.5" style="stroke:#000D19;stroke-width:0.5;" width="200" x="38" y="167.79"/><ellipse cx="53" cy="187.6845" fill="#ADD1B2" rx="11" ry="11" style="stroke:#181818;stroke-width:1.0;"/><path d="M55.9688,193.3252 Q55.3906,193.622 54.75,193.7627 Q54.1094,193.9189 53.4063,193.9189 Q50.9063,193.9189 49.5781,192.2783 Q48.2656,190.622 48.2656,187.497 Q48.2656,184.372 49.5781,182.7158 Q50.9063,181.0595 53.4063,181.0595 Q54.1094,181.0595 54.75,181.2158 Q55.4063,181.372 55.9688,181.6689 L55.9688,184.3877 Q55.3438,183.8095 54.75,183.5439 Q54.1563,183.2627 53.5313,183.2627 Q52.1875,183.2627 51.5,184.3408 Q50.8125,185.4033 50.8125,187.497 Q50.8125,189.5908 51.5,190.6689 Q52.1875,191.7314 53.5313,191.7314 Q54.1563,191.7314 54.75,191.4658 Q55.3438,191.1845 55.9688,190.6064 L55.9688,193.3252 Z " fill="#000000"/><text fill="#D9B8FF" font-family="Helvetica" font-size="17" lengthAdjust="spacing" textLength="158" x="72" y="193.5698">microsoft_resource</text></g><!--class resource--><g id="elem_resource"><rect codeLine="32" fill="#3D176E" height="39.7891" id="resource" rx="2.5" ry="2.5" style="stroke:#000D19;stroke-width:0.5;" width="113" x="159.5" y="7"/><ellipse cx="174.5" cy="26.8945" fill="#ADD1B2" rx="11" ry="11" style="stroke:#181818;stroke-width:1.0;"/><path d="M177.4688,32.5352 Q176.8906,32.832 176.25,32.9727 Q175.6094,33.1289 174.9063,33.1289 Q172.4063,33.1289 171.0781,31.4883 Q169.7656,29.832 169.7656,26.707 Q169.7656,23.582 171.0781,21.9258 Q172.4063,20.2695 174.9063,20.2695 Q175.6094,20.2695 176.25,20.4258 Q176.9063,20.582 177.4688,20.8789 L177.4688,23.5977 Q176.8438,23.0195 176.25,22.7539 Q175.6563,22.4727 175.0313,22.4727 Q173.6875,22.4727 173,23.5508 Q172.3125,24.6133 172.3125,26.707 Q172.3125,28.8008 173,29.8789 Q173.6875,30.9414 175.0313,30.9414 Q175.6563,30.9414 176.25,30.6758 Q176.8438,30.3945 177.4688,29.8164 L177.4688,32.5352 Z " fill="#000000"/><text fill="#D9B8FF" font-family="Helvetica" font-size="17" lengthAdjust="spacing" textLength="71" x="193.5" y="32.7798">resource</text></g><!--class user--><g id="elem_user"><rect codeLine="35" fill="#3D176E" height="39.7891" id="user" rx="2.5" ry="2.5" style="stroke:#000D19;stroke-width:0.5;" width="78" x="255" y="267.58"/><ellipse cx="270" cy="287.4745" fill="#ADD1B2" rx="11" ry="11" style="stroke:#181818;stroke-width:1.0;"/><path d="M272.9688,293.1152 Q272.3906,293.412 271.75,293.5527 Q271.1094,293.7089 270.4063,293.7089 Q267.9063,293.7089 266.5781,292.0683 Q265.2656,290.412 265.2656,287.287 Q265.2656,284.162 266.5781,282.5058 Q267.9063,280.8495 270.4063,280.8495 Q271.1094,280.8495 271.75,281.0058 Q272.4063,281.162 272.9688,281.4589 L272.9688,284.1777 Q272.3438,283.5995 271.75,283.3339 Q271.1563,283.0527 270.5313,283.0527 Q269.1875,283.0527 268.5,284.1308 Q267.8125,285.1933 267.8125,287.287 Q267.8125,289.3808 268.5,290.4589 Q269.1875,291.5214 270.5313,291.5214 Q271.1563,291.5214 271.75,291.2558 Q272.3438,290.9745 272.9688,290.3964 L272.9688,293.1152 Z " fill="#000000"/><text fill="#D9B8FF" font-family="Helvetica" font-size="17" lengthAdjust="spacing" textLength="36" x="289" y="293.3598">user</text></g><!--reverse link microsoft_resource to microsoft_graph_entity--><g id="link_microsoft_resource_microsoft_graph_entity"><path codeLine="38" d="M135.5459,225.951 C133.0559,263.721 128.76,329.05 126.28,366.88 " fill="none" id="microsoft_resource-backto-microsoft_graph_entity" style="stroke:#FFAF37;stroke-width:2.0;"/><polygon fill="none" points="136.73,207.99,129.5589,225.5563,141.5329,226.3457,136.73,207.99" style="stroke:#FFAF37;stroke-width:2.0;"/></g><!--reverse link microsoft_graph_entity to microsoft_graph_user--><g id="link_microsoft_graph_entity_microsoft_graph_user"><path codeLine="39" d="M143.7459,423.2888 C160.0859,453.8088 183.35,497.27 199.71,527.83 " fill="none" id="microsoft_graph_entity-backto-microsoft_graph_user" style="stroke:#FFAF37;stroke-width:2.0;"/><polygon fill="none" points="135.25,407.42,138.4563,426.1208,149.0355,420.4568,135.25,407.42" style="stroke:#FFAF37;stroke-width:2.0;"/></g><!--reverse link user to microsoft_graph_user--><g id="link_user_microsoft_graph_user"><path codeLine="40" d="M284.7161,324.9526 C278.6561,348.5126 272.17,372.34 261,407.16 C247.02,450.73 227.99,500.93 217.58,527.76 " fill="none" id="user-backto-microsoft_graph_user" style="stroke:#FFAF37;stroke-width:2.0;"/><polygon fill="none" points="289.2,307.52,278.9052,323.4579,290.5269,326.4472,289.2,307.52" style="stroke:#FFAF37;stroke-width:2.0;"/></g><!--reverse link resource to microsoft_resource--><g id="link_resource_microsoft_resource"><path codeLine="41" d="M198.6547,63.2065 C183.6647,93.7265 162.45,136.9 147.44,167.47 " fill="none" id="resource-backto-microsoft_resource" style="stroke:#FFAF37;stroke-width:2.0;"/><polygon fill="none" points="206.59,47.05,193.2692,60.5614,204.0402,65.8516,206.59,47.05" style="stroke:#FFAF37;stroke-width:2.0;"/></g><!--reverse link resource to user--><g id="link_resource_user"><path codeLine="42" d="M226.9345,64.1442 C241.3145,111.8542 273.64,218.98 288.15,267.08 " fill="none" id="resource-backto-user" style="stroke:#FFAF37;stroke-width:2.0;"/><polygon fill="none" points="221.74,46.91,221.1897,65.8757,232.6792,62.4127,221.74,46.91" style="stroke:#FFAF37;stroke-width:2.0;"/></g><!--SRC=[XPBBReCm44Nt_WfBMID1evOWTPCWLUqcgfhk8uF7O04s6fj6wUFV2wHfNHx9TkwPkNT6aqiE5AhQ7ca5LG9eY2cagXcoYguHzI7MfKQw48A9PJWK7xIoLu4jgu0-Gla6LgPiIBpcCYqK64Dl76d3qY93tIX-6c-HATDAeAn3nIKpPcqjogInu8JXKR8IOaWEXowMF0ZlO8Hfv80_YE_xF8Y6o5MhYtl_4Zlv3ZHmZxRL5aOnHnOzTJ5bHpWXHukUzTcCpunpgJ9wwzHUJfbG0VwhxtB6zQ6Z1IkDQsCi86Xxh24URGNHYejm4dwQWqdQdOvMCaLjjB3x35cTxzklaEq7Vn3oDKCqfiqygICOtM0AhZfL-vimqNl_wNdUJ2moatQwfxCXlTS5VTRtB0o9lkiR]--></g></svg>

<svg xmlns="http://www.w3.org/2000/svg" width="340" height="573" viewBox="0 0 340 573"><rect width="236" height="39.789" x="7" y="367.37" fill="#3D176E" rx="2.5" ry="2.5" style="stroke:#000d19;stroke-width:.5"/><circle cx="22" cy="387.264" r="11" fill="#ADD1B2" style="stroke:#181818;stroke-width:1"/><path d="M24.969 392.905q-.578.297-1.219.438-.64.156-1.344.156-2.5 0-3.828-1.64-1.312-1.657-1.312-4.782t1.312-4.781q1.328-1.656 3.828-1.656.703 0 1.344.156.656.156 1.219.453v2.719q-.625-.579-1.219-.844-.594-.281-1.219-.281-1.343 0-2.031 1.078-.687 1.062-.687 3.156t.687 3.172q.688 1.062 2.031 1.062.625 0 1.219-.265.594-.281 1.219-.86z"/><text x="41" y="393.15" fill="#D9B8FF" font-family="Helvetica" font-size="17" textLength="194">microsoft_graph_entity</text><rect width="222" height="39.789" x="99" y="528.16" fill="#3D176E" rx="2.5" ry="2.5" style="stroke:#000d19;stroke-width:.5"/><circle cx="114" cy="548.054" r="11" fill="#ADD1B2" style="stroke:#181818;stroke-width:1"/><path d="M116.969 553.695q-.578.297-1.219.438-.64.156-1.344.156-2.5 0-3.828-1.64-1.312-1.657-1.312-4.782t1.312-4.781q1.328-1.657 3.828-1.657.703 0 1.344.157.656.156 1.219.453v2.719q-.625-.579-1.219-.844-.594-.281-1.219-.281-1.344 0-2.031 1.078-.687 1.062-.687 3.156t.687 3.172q.688 1.062 2.031 1.062.625 0 1.219-.265.594-.282 1.219-.86z"/><text x="133" y="553.94" fill="#D9B8FF" font-family="Helvetica" font-size="17" textLength="180">microsoft_graph_user</text><rect width="200" height="39.789" x="38" y="167.79" fill="#3D176E" rx="2.5" ry="2.5" style="stroke:#000d19;stroke-width:.5"/><circle cx="53" cy="187.685" r="11" fill="#ADD1B2" style="stroke:#181818;stroke-width:1"/><path d="M55.969 193.325q-.578.297-1.219.438-.64.156-1.344.156-2.5 0-3.828-1.64-1.312-1.657-1.312-4.782t1.312-4.781q1.328-1.656 3.828-1.656.703 0 1.344.156.656.156 1.219.453v2.719q-.625-.578-1.219-.844-.594-.281-1.219-.281-1.343 0-2.031 1.078-.687 1.062-.687 3.156t.687 3.172q.688 1.062 2.031 1.062.625 0 1.219-.265.594-.281 1.219-.86z"/><text x="72" y="193.57" fill="#D9B8FF" font-family="Helvetica" font-size="17" textLength="158">microsoft_resource</text><rect width="113" height="39.789" x="159.5" y="7" fill="#3D176E" rx="2.5" ry="2.5" style="stroke:#000d19;stroke-width:.5"/><circle cx="174.5" cy="26.895" r="11" fill="#ADD1B2" style="stroke:#181818;stroke-width:1"/><path d="M177.469 32.535q-.578.297-1.219.438-.64.156-1.344.156-2.5 0-3.828-1.64-1.312-1.657-1.312-4.782t1.312-4.781q1.328-1.656 3.828-1.656.703 0 1.344.156.656.156 1.219.453v2.719q-.625-.578-1.219-.844-.594-.281-1.219-.281-1.344 0-2.031 1.078-.687 1.062-.687 3.156t.687 3.172q.688 1.062 2.031 1.062.625 0 1.219-.265.594-.281 1.219-.86z"/><text x="193.5" y="32.78" fill="#D9B8FF" font-family="Helvetica" font-size="17" textLength="71">resource</text><rect width="78" height="39.789" x="255" y="267.58" fill="#3D176E" rx="2.5" ry="2.5" style="stroke:#000d19;stroke-width:.5"/><circle cx="270" cy="287.474" r="11" fill="#ADD1B2" style="stroke:#181818;stroke-width:1"/><path d="M272.969 293.115q-.578.297-1.219.438-.64.156-1.344.156-2.5 0-3.828-1.64-1.312-1.657-1.312-4.782t1.312-4.781q1.328-1.656 3.828-1.656.703 0 1.344.156.656.156 1.219.453v2.719q-.625-.579-1.219-.844-.594-.281-1.219-.281-1.344 0-2.031 1.078-.687 1.062-.687 3.156t.687 3.172q.688 1.062 2.031 1.062.625 0 1.219-.265.594-.281 1.219-.86z"/><text x="289" y="293.36" fill="#D9B8FF" font-family="Helvetica" font-size="17" textLength="36">user</text><g fill="none"><path d="M135.546 225.951c-2.49 37.77-6.786 103.099-9.266 140.929" style="stroke:#ffaf37;stroke-width:2"/><path d="m136.73 207.99-7.171 17.566 11.974.79z" style="stroke:#ffaf37;stroke-width:2"/></g><path fill="none" d="M143.746 423.289c16.34 30.52 39.604 73.981 55.964 104.541m-64.46-120.41 3.206 18.7 10.58-5.663z" style="stroke:#ffaf37;stroke-width:2"/><g fill="none"><path d="M284.716 324.953c-6.06 23.56-12.546 47.387-23.716 82.207-13.98 43.57-33.01 93.77-43.42 120.6" style="stroke:#ffaf37;stroke-width:2"/><path d="m289.2 307.52-10.295 15.938 11.622 2.99z" style="stroke:#ffaf37;stroke-width:2"/></g><path fill="none" d="M198.655 63.207c-14.99 30.52-36.205 73.693-51.215 104.263m59.15-120.42-13.32 13.511 10.77 5.29z" style="stroke:#ffaf37;stroke-width:2"/><g fill="none"><path d="M226.935 64.144c14.38 47.71 46.705 154.836 61.215 202.936" style="stroke:#ffaf37;stroke-width:2"/><path d="m221.74 46.91-.55 18.966 11.49-3.463z" style="stroke:#ffaf37;stroke-width:2"/></g></svg>
